src/icons/tab-close.svg

<svg viewBox="0 0 32 32" xmlns="http://www.w3.org/2000/svg"><path d="m2.0639199 4.5c-.5901899 0-1.06391992.4841499-1.06391992 1.0837456v20.8325084c0 .599596.47373002 1.083746 1.06391992 1.083746h27.8721601c.59019 0 1.06392-.48415 1.06392-1.083746v-20.8325084c0-.5995956-.47373-1.0837456-1.06392-1.0837456zm17.5506751 1.9372613h8.98674c.35832 0 .646635.2929337.646635.6569806v17.8115161c0 .364061-.288315.656981-.646635.656981h-8.98674c-.35832 0-.64665-.29292-.64665-.656981v-17.8115161c0-.3640469.28833-.6569806.64665-.6569806zm-12.4327654 4.7701427c.211875 0 .39342.07676.541635.227412l2.3351104 2.372437 2.332365-2.372437c.1482-.150592.329865-.227412.541635-.227412.21168 0 .390645.07676.538875.227412l1.080495 1.097776c.1482.150506.221085.332336.221085.547486 0 .215151-.0729.396895-.221085.547486l-2.33511 2.372436 2.33511 2.372436c.1482.150592.221085.332335.221085.547486 0 .21515-.0729.396894-.221085.547486l-1.080495 1.097776c-.1482.150592-.327195.227412-.538875.227412-.21177 0-.39342-.07691-.541635-.227412l-2.332365-2.369633-2.3351104 2.369633c-.1482.150592-.32967.227412-.541635.227412-.211665 0-.390735-.07691-.538875-.227412l-1.0804951-1.097776c-.1482-.150492-.221085-.332336-.221085-.547486 0-.215151.0729-.396894.221085-.547486l2.3351101-2.372436-2.3351101-2.372436c-.1482-.150506-.221085-.332335-.221085-.547486s.07305-.396895.221085-.547486l1.0804951-1.097776c.1482-.150592.32721-.227412.538875-.227412z" fill="#f25022"/></svg>

<?xml version="1.0" encoding="UTF-8" standalone="no"?>
<svg
   xmlns:dc="http://purl.org/dc/elements/1.1/"
   xmlns:cc="http://creativecommons.org/ns#"
   xmlns:rdf="http://www.w3.org/1999/02/22-rdf-syntax-ns#"
   xmlns:svg="http://www.w3.org/2000/svg"
   xmlns="http://www.w3.org/2000/svg"
   xmlns:sodipodi="http://sodipodi.sourceforge.net/DTD/sodipodi-0.dtd"
   xmlns:inkscape="http://www.inkscape.org/namespaces/inkscape"
   viewBox="0 0 32 32"
   version="1.1"
   id="svg6"
   sodipodi:docname="tab-close.svg"
   inkscape:version="1.0.1 (3bc2e813f5, 2020-09-07)">
  <metadata
     id="metadata12">
    <rdf:RDF>
      <cc:Work
         rdf:about="">
        <dc:format>image/svg+xml</dc:format>
        <dc:type
           rdf:resource="http://purl.org/dc/dcmitype/StillImage" />
        <dc:title />
      </cc:Work>
    </rdf:RDF>
  </metadata>
  <defs
     id="defs10" />
  <sodipodi:namedview
     pagecolor="#ffffff"
     bordercolor="#666666"
     borderopacity="1"
     objecttolerance="10"
     gridtolerance="10"
     guidetolerance="10"
     inkscape:pageopacity="0"
     inkscape:pageshadow="2"
     inkscape:window-width="1366"
     inkscape:window-height="702"
     id="namedview8"
     showgrid="false"
     inkscape:zoom="7.375"
     inkscape:cx="-0.61016954"
     inkscape:cy="16"
     inkscape:window-x="0"
     inkscape:window-y="0"
     inkscape:window-maximized="1"
     inkscape:current-layer="svg6"
     inkscape:document-rotation="0" />
  <g
     id="g33">
    <path
       id="path4"
       class="ColorScheme-Text"
       d="M 2.0639199,4.5 C 1.47373,4.5 0.99999998,4.9841499 0.99999998,5.5837456 V 26.416254 C 0.99999998,27.01585 1.47373,27.5 2.0639199,27.5 H 29.93608 C 30.52627,27.5 31,27.01585 31,26.416254 V 5.5837456 C 31,4.98415 30.52627,4.5 29.93608,4.5 Z M 19.614595,6.4372613 h 8.98674 c 0.35832,0 0.646635,0.2929337 0.646635,0.6569806 V 24.905758 c 0,0.364061 -0.288315,0.656981 -0.646635,0.656981 h -8.98674 c -0.35832,0 -0.64665,-0.29292 -0.64665,-0.656981 V 7.0942419 c 0,-0.3640469 0.28833,-0.6569806 0.64665,-0.6569806 z M 7.1818296,11.207404 c 0.211875,0 0.39342,0.07676 0.541635,0.227412 l 2.3351104,2.372437 2.332365,-2.372437 c 0.1482,-0.150592 0.329865,-0.227412 0.541635,-0.227412 0.21168,0 0.390645,0.07676 0.538875,0.227412 l 1.080495,1.097776 c 0.1482,0.150506 0.221085,0.332336 0.221085,0.547486 0,0.215151 -0.0729,0.396895 -0.221085,0.547486 L 12.216835,16 l 2.33511,2.372436 c 0.1482,0.150592 0.221085,0.332335 0.221085,0.547486 0,0.21515 -0.0729,0.396894 -0.221085,0.547486 l -1.080495,1.097776 c -0.1482,0.150592 -0.327195,0.227412 -0.538875,0.227412 -0.21177,0 -0.39342,-0.07691 -0.541635,-0.227412 l -2.332365,-2.369633 -2.3351104,2.369633 c -0.1482,0.150592 -0.32967,0.227412 -0.541635,0.227412 -0.211665,0 -0.390735,-0.07691 -0.538875,-0.227412 L 5.5624595,19.467408 c -0.1482,-0.150492 -0.221085,-0.332336 -0.221085,-0.547486 0,-0.215151 0.0729,-0.396894 0.221085,-0.547486 L 7.8975696,16 5.5624595,13.627564 c -0.1482,-0.150506 -0.221085,-0.332335 -0.221085,-0.547486 0,-0.215151 0.07305,-0.396895 0.221085,-0.547486 l 1.0804951,-1.097776 c 0.1482,-0.150592 0.32721,-0.227412 0.538875,-0.227412 z"
       style="fill:#f25022;fill-opacity:1;stroke:none;stroke-width:1.46842"
       inkscape:connector-curvature="0" />
  </g>
</svg>
